icons/gno.svg

<svg xmlns="http://www.w3.org/2000/svg" viewBox="0 0 2000 2000" enable-background="new 0 0 2000 2000"><g fill="#00a6c4"><path d="m1809.4 500l-73.6 73.6c58.5 92 76.9 207.4 36.8 317.7-66.9 187.3-274.2 286-463.2 219.1-26.8-10-51.8-21.7-73.6-36.8l-235.8 235.8-205.7-207.4c-95.3 63.5-217.4 81.9-332.8 41.8-194-70.2-294.3-282.6-224.1-474.9 10-30.1 25.1-56.9 41.8-81.9l-88.6-88.6-16.7 28.4c-92 150.5-142.1 324.4-142.1 503.3-1.7 533.4 433.1 969.9 966.5 969.9h1.7c533.4 0 966.6-433.1 968.2-966.6 0-177.3-48.5-351.2-140.5-503.3l-18.3-30.1"/><path d="m388 695.7c-25.1 33.4-40.1 75.3-40.1 120.4 0 108.7 88.6 197.3 197.3 197.3 45.2 0 87-15.1 120.4-41.8l-277.6-275.9"/><path d="m1356.2 954.8c31.8 21.7 68.6 33.4 110.4 33.4 108.7 0 197.3-88.6 197.3-197.3 0-40.1-11.7-78.6-33.4-110.4l-274.3 274.3"/><path d="m1003.3 1162.2l-799.3-802.7 31.8-33.4c197.3-209 466.5-326.1 755.8-326.1h1.7c292.6 0 573.6 125.4 769.2 342.8l30.1 33.4-789.3 786m-668.8-802.7l668.9 670.6 660.5-657.2c-177.3-177.2-418.1-279.3-668.9-279.3h-1.7c-249.2 0-481.6 93.7-658.8 265.9"/></g></svg>

<?xml version="1.0" encoding="utf-8"?>
<!-- Generator: Adobe Illustrator 19.2.1, SVG Export Plug-In . SVG Version: 6.00 Build 0)  -->
<svg version="1.1" id="Isolation_Mode" xmlns="http://www.w3.org/2000/svg" xmlns:xlink="http://www.w3.org/1999/xlink" x="0px"
	 y="0px" viewBox="0 0 2000 2000" style="enable-background:new 0 0 2000 2000;" xml:space="preserve">
<style type="text/css">
	.st0{fill:#00A6C4;}
</style>
<path class="st0" d="M1809.4,500l-73.6,73.6c58.5,92,76.9,207.4,36.8,317.7c-66.9,187.3-274.2,286-463.2,219.1
	c-26.8-10-51.8-21.7-73.6-36.8L1000,1309.4L794.3,1102c-95.3,63.5-217.4,81.9-332.8,41.8c-194-70.2-294.3-282.6-224.1-474.9
	c10-30.1,25.1-56.9,41.8-81.9l-88.6-88.6l-16.7,28.4c-92,150.5-142.1,324.4-142.1,503.3C30.1,1563.5,464.9,2000,998.3,2000h1.7
	c533.4,0,966.6-433.1,968.2-966.6c0-177.3-48.5-351.2-140.5-503.3L1809.4,500z"/>
<path class="st0" d="M388,695.7c-25.1,33.4-40.1,75.3-40.1,120.4c0,108.7,88.6,197.3,197.3,197.3c45.2,0,87-15.1,120.4-41.8
	L388,695.7z"/>
<g>
	<path class="st0" d="M1356.2,954.8c31.8,21.7,68.6,33.4,110.4,33.4c108.7,0,197.3-88.6,197.3-197.3c0-40.1-11.7-78.6-33.4-110.4
		L1356.2,954.8z"/>
</g>
<g>
	<path class="st0" d="M1003.3,1162.2L204,359.5l31.8-33.4C433.1,117.1,702.3,0,991.6,0h1.7c292.6,0,573.6,125.4,769.2,342.8
		l30.1,33.4L1003.3,1162.2z M334.5,359.5l668.9,670.6l660.5-657.2C1486.6,195.7,1245.8,93.6,995,93.6h-1.7
		C744.1,93.6,511.7,187.3,334.5,359.5z"/>
</g>
</svg>
